svgs/solid/arrow-up-short-wide.svg

<svg xmlns="http://www.w3.org/2000/svg" viewBox="0 0 576 512"><!-- Font Awesome Pro 6.0.0-alpha2 by @fontawesome - https://fontawesome.com License - https://fontawesome.com/license (Commercial License) --><path d="M543.998 416H320C302.326 416 288 430.328 288 448S302.326 480 320 480H543.998C561.671 480 575.998 465.672 575.998 448S561.671 416 543.998 416ZM320 96H352C369.673 96 384 81.672 384 64S369.673 32 352 32H320C302.326 32 288 46.328 288 64S302.326 96 320 96ZM320 224H415.998C433.671 224 447.998 209.672 447.998 192S433.671 160 415.998 160H320C302.326 160 288 174.328 288 192S302.326 224 320 224ZM320 352H479.998C497.671 352 511.998 337.672 511.998 320S497.671 288 479.998 288H320C302.326 288 288 302.328 288 320S302.326 352 320 352ZM151.593 41.945C139.468 28.684 116.531 28.684 104.406 41.945L16.408 138.039C4.472 151.086 5.347 171.352 18.377 183.305C24.517 188.934 32.267 191.719 39.986 191.719C48.658 191.719 57.283 188.215 63.595 181.332L96 145.938V447.969C96 465.672 110.328 480 128 480S160 465.672 160 447.969V145.938L192.404 181.332C204.357 194.344 224.607 195.25 237.623 183.305C250.652 171.352 251.527 151.086 239.591 138.039L151.593 41.945Z"/></svg>

<svg xmlns="http://www.w3.org/2000/svg" viewBox="0 0 576 512"><!--! Font Awesome Pro 6.4.0 by @fontawesome - https://fontawesome.com License - https://fontawesome.com/license (Commercial License) Copyright 2023 Fonticons, Inc. --><path d="M151.6 42.4C145.5 35.8 137 32 128 32s-17.5 3.8-23.6 10.4l-88 96c-11.9 13-11.1 33.3 2 45.2s33.3 11.1 45.2-2L96 146.3V448c0 17.7 14.3 32 32 32s32-14.3 32-32V146.3l32.4 35.4c11.9 13 32.2 13.9 45.2 2s13.9-32.2 2-45.2l-88-96zM320 32c-17.7 0-32 14.3-32 32s14.3 32 32 32h32c17.7 0 32-14.3 32-32s-14.3-32-32-32H320zm0 128c-17.7 0-32 14.3-32 32s14.3 32 32 32h96c17.7 0 32-14.3 32-32s-14.3-32-32-32H320zm0 128c-17.7 0-32 14.3-32 32s14.3 32 32 32H480c17.7 0 32-14.3 32-32s-14.3-32-32-32H320zm0 128c-17.7 0-32 14.3-32 32s14.3 32 32 32H544c17.7 0 32-14.3 32-32s-14.3-32-32-32H320z"/></svg>
